!!!!SEGMENT: s-uu--vok-mus-i-hs-54-10_forster-kaspar--inter-brachia-salvatoris-mei.krn
!!!cenid: 16xx:1703
!!!COM: Förster, Kaspar
!!!COM-rismID: pe30006147
!!!CDT: ~1616-1673/02/02
!!!CNT: German
!!!OTL: Inter brachia salvatoris mei
!!!PDT:
!!!AGN:
!!!SMS-siglum: S-Uu
!!!SMS-shelfmark: Vok. mus. i hs. 54:10
!!!SMS-variant:
!!!SMS-altvar:
!!!SMS-shelfwork: W
!!!NIFC-rismSourceID: 190008721
!!!NIFC-rismChildID: 190008721
!!!NIFC-islandoraID: none
!!!URL-pdf-islandora:
!!!URL-scan: https://www2.musik.uu.se/duben/presentationSource1.php?Select_Dnr=831 @EN{Scan on Academica} @PL{Skany w zewnętrznej bibliotece cyfrowej}
!!!IIIF:
!!!ONB-nifc: UWAGA: poszczególne partie dostępne po kliknięciu w „browse part”. Informacje nt stron tytułowych w opisie na stronie lub na RISM.
!!!AIN: 1 cello 1 soprn 4 viola 1 viole
!!!key: E-
**kern	**fb	**dynam	**kern	**fb	**dynam	**kern	**kern	**kern	**kern	**kern	**text
*part7	*part7	*part7	*part6	*part6	*part6	*part5	*part4	*part3	*part2	*part1	*part1
*staff7	*staff7	*	*staff6	*	*	*staff5	*staff4	*staff3	*staff2	*staff1	*staff1
*I"Continuo	*	*	*I"Violone	*	*	*I"Viola 4.	*I"Viola 3.	*I"Viola 2.	*I"Viola 1.	*I"Canto solo con 4 Viol.	*
*I'vlc	*	*	*I'vlne	*	*	*I'vla IV	*I'vla III	*I'vla II	*I'vla II	*I'S	*
*ICstr	*	*	*ICstr	*	*	*ICstr	*ICstr	*ICstr	*ICstr	*ICvox	*
*Icello	*	*	*Iviole	*	*	*Iviola	*Iviola	*Iviola	*Iviola	*Isoprn	*
*clefF4	*	*	*clefF4	*	*	*clefC1	*clefC1	*clefC1	*clefC1	*clefC1	*
*k[b-e-a-]	*	*	*k[b-e-e-a-a-]	*	*	*k[b-e-e-a-]	*k[b-e-e-a-]	*k[b-e-a-]	*k[b-e-e-a-]	*k[e-b-a-e-]	*
*E-:	*	*	*E-:	*	*	*E-:	*E-:	*E-:	*E-:	*E-:	*
*M2/1	*	*	*M2/1	*	*	*M2/1	*M2/1	*M2/1	*M2/1	*M2/1	*
*met(C)	*	*	*met(C|)	*	*	*met(C)	*met(C)	*met(C)	*met(C)	*met(C)	*
=1-	=1-	=1-	=1-	=1-	=1-	=1-	=1-	=1-	=1-	=1-	=1-
!!LO:TX:t=P:problem: all\right	!	!	!	!	!	!	!	!	!
!!LO:TX:t=P:problem: problem z wpisaniem cyfrowania - Verovio nie wyświetla cyfrowania!! W przypadku naprawy błędu VHV proszę o odesłanie pliku w celu uzupełnienia bc	!	!	!	!	!	!	!	!	!	!	!
*2\right	*	*	*2\right	*	*	*	*	*	*	*	*
!	!	!	!	!	!	!	!LO:TX:t=P:problem: znaki przykluczowe: b- ee- e- a-	!	!LO:TX:t=P:problem: znaki przykluczowe: b- ee- e- a-	!LO:TX:t=P:problem: znaki przykluczowe: ee- b- a- e-	!
!	!	!	!LO:TX:t=P:problem: znaki przykluczowe: B- EE- E- AA- A-	!	!	!LO:TX:t=P:problem: znaki przykluczowe: b- ee- e- a-	!	!	!	!LO:TX:a:t=P:problem:Po konsultacjach z Jackiem Iwaszko zostały wybrane głosy&colon; Violone oraz Continuo (Violone oraz bc nie wpisujemy)	!
!	!	!	!	!	!	!LO:TX:b:t=Sinfonia	!LO:TX:b:t=Sinfonia	!LO:TX:b:t=Sinfonia.	!	!LO:TX:b:t=Sinfonia.	!
!	!	!	!	!	!	!	!	!	!LO:TX:b:t=Sinfonia	!LO:TX:a:t=18.	!
2E-\	.	.	2E-\	.	.	2B-/	2e-/	2e-/	2g/	00r	.
!LO:TX:t=P:problem:kreska pseudotaktowa	!	!	!	!	!	!	!	!	!	!	!
2r	.	.	2r	.	.	2rd	2rf	2rf	2r	.	.
2BB-/	.	.	2BB-/	.	.	2B-/	2d-X/	2f/	2f/	.	.
!LO:TX:t=P:problem:kreska pseudotaktowa	!	!	!LO:TX:t=P:problem:kreska pseudotaktowa	!	!	!LO:TX:t=P:problem:kreska pseudotaktowa	!	!	!	!	!
2rC	.	.	2rC	.	.	2rd	2rf	2rf	2rf	.	.
=2-	=2-	=2-	=2-	=2-	=2-	=2-	=2-	=2-	=2-	=2-	=2-
2C/	.	.	2C/	.	.	2G/	2c/	2c/	2e-/	.	.
!LO:TX:t=P:problem:kreska pseudotaktowa	!	!	!	!	!	!	!	!	!	!	!
2rC	.	.	2rC	.	.	2rB	2rd	2rd	2rf	.	.
2D-X/	.	.	2D-X/	.	.	2A-/	2A-/	2d-X/	2d-X/	.	.
!LO:TX:t=P:problem:kreska pseudotaktowa	!	!	!LO:TX:t=P:problem:kreska pseudotaktowa	!	!	!LO:TX:t=P:problem:kreska pseudotaktowa	!LO:TX:t=P:problem:kreska pseudotaktowa	!	!	!	!
2rD	.	.	2r	.	.	2rB	2rd	2rd	2rd	.	.
=3-	=3-	=3-	=3-	=3-	=3-	=3-	=3-	=3-	=3-	=3-	=3-
2E-\	.	.	2E-\	.	.	2G/	2B-/	2G/	2B-/	00r	.
!	!	!	!	!	!	!	!	!LO:TX:t=P:problem:kreska pseudotaktowa	!LO:TX:t=P:problem:kreska pseudotaktowa	!	!
2rC	.	.	2rC	.	.	2rf	2rd	2rd	2rd	.	.
2C/	.	.	2C/	.	.	2G/	1.c	2.c/	4rd	.	.
.	.	.	.	.	.	.	.	.	2e-/	.	.
!LO:TX:t=P:problem:kreska pseudotaktowa	!	!	!LO:TX:t=P:problem:kreska pseudotaktowa	!	!	!	!	!	!	!	!
2AA-/	.	.	2AA-/	.	.	2c/	.	.	.	.	.
.	.	.	.	.	.	.	.	4c/	4f/	.	.
=4-	=4-	=4-	=4-	=4-	=4-	=4-	=4-	=4-	=4-	=4-	=4-
1GG	.	.	1GG	.	.	1G	.	2.dny/	2g/	.	.
.	.	.	.	.	.	.	2B-/	.	1B-	.	.
.	.	.	.	.	.	.	.	8c/L	.	.	.
.	.	.	.	.	.	.	.	8d/J	.	.	.
2C/	.	.	2C/	.	.	2G/	1c	1e-	.	.	.
!	!	!	!	!	!	!LO:N:acc=#	!	!	!LO:N:acc=#	!	!
2FF/	.	.	2FF/	.	.	2An/	.	.	2An/	.	.
=5-	=5-	=5-	=5-	=5-	=5-	=5-	=5-	=5-	=5-	=5-	=5-
2BB-/	.	.	2BB-/	.	.	2d/	2B-/	2d/	2B-/	00r	.
!LO:TX:t=P:problem:kreska pseudotaktowa	!	!	!LO:TX:t=P:problem:kreska pseudotaktowa	!	!	!	!LO:TX:t=P:problem:kreska pseudotaktowa	!	!LO:TX:t=P:problem:kreska pseudotaktowa	!	!
2rC	.	.	2rC	.	.	2rd	2rd	2rd	2rd	.	.
*	*	*	*	*	*	*	*	*2\right	*2\right	*	*
2B-\	.	.	2B-\	.	.	2B-/	2f/	2b-\	2dd\	.	.
2rB	.	.	2rB	.	.	2rd	2rf	2r	2rdd	.	.
=6-	=6-	=6-	=6-	=6-	=6-	=6-	=6-	=6-	=6-	=6-	=6-
2F\	.	.	2F\	.	.	2c/	2f/	2a-\	2cc\	.	.
!	!	!	!	!	!	!LO:TX:t=P:problem:kreska pseudotaktowa	!	!	!	!	!
2rD	.	.	2rD	.	.	2rd	2rf	2r	2rb	.	.
2G\	.	.	2G\	.	.	2d/	2B-/	2g/	2b-\	.	.
!LO:TX:t=P:problem:kreska pseudotaktowa	!	!	!LO:TX:t=P:problem:kreska pseudotaktowa	!	!	!	!	!	!	!	!
2rG	.	.	2rF	.	.	2rd	2rd	2r	2r	.	.
=7-	=7-	=7-	=7-	=7-	=7-	=7-	=7-	=7-	=7-	=7-	=7-
2A-\	.	.	2A-\	.	.	2c/	2e-/	2e-/	2a-\	00r	.
!	!	!	!	!	!	!LO:TX:t=P:problem:kreska pseudotaktowa	!	!	!	!	!
2rB	.	.	2rB	.	.	2rd	2rf	2rf	2r	.	.
!LO:LB:g=original	!	!	!	!	!	!	!	!LO:LB:g=original	!	!	!
2B-\	.	.	2B-\	.	.	2d/	2B-/	2d/	2f/	.	.
!LO:TX:t=P:problem:kreska pseudotaktowa	!	!	!LO:TX:t=P:problem:kreska pseudotaktowa	!	!	!	!	!	!LO:TX:t=P:problem:kreska pseudotaktowa	!	!
2rB	.	.	2rB	.	.	2rf	2rd	2rd	2rf	.	.
!	!	!	!	!	!	!LO:LB:g=original	!LO:LB:g=original	!	!LO:LB:g=original	!	!
=8-	=8-	=8-	=8-	=8-	=8-	=8-	=8-	=8-	=8-	=8-	=8-
2E-\	.	.	2E-\	.	.	2B-/	2g/	2.e-/	4r	.	.
.	.	.	.	.	.	.	.	.	2g/	.	.
2C/	.	.	2C/	.	.	2c/	2e-/	.	.	.	.
.	.	.	.	.	.	.	.	4e-/	4a-\	.	.
2BB-/	.	.	2BB-/	.	.	2d/	2dny/	2f/	2b-\	.	.
!LO:TX:t=P:problem:kreska pseudotaktowa	!	!	!	!	!	!	!	!	!	!	!
!	!	!	!LO:TX:t=P:problem:kreska pseudotaktowa	!	!	!	!	!	!	!	!
2AA-/	.	.	2AA-/	.	.	2e-/	2c/	1g\	1e-/	.	.
=9-	=9-	=9-	=9-	=9-	=9-	=9-	=9-	=9-	=9-	=9-	=9-
!	!	!	!	!	!	!	!	!	!	!LO:TX:t=P:problem:kreska pseudotaktowa	!
1BB-	.	.	1BB-	.	.	1B-	1B-	.	.	0r	.
.	.	.	.	.	.	.	.	2f/	2dny/	.	.
!	!	!	!LO:TX:t=P:problem:kreska pseudotaktowa	!	!	!	!	!	!	!	!
!LO:TX:t=P:problem:kreska pseudotaktowa	!	!	!	!	!	!	!LO:TX:t=P:problem:kreska pseudotaktowa	!	!	!	!
1EE-	.	.	1EE-	.	.	1G	1B-	1e-	1e-	.	.
*	*	*	*custos:E	*	*	*	*	*	*	*	*
!	!	!	!LO:LB:g=original	!	!	!	!	!	!	!	!
=10||-	=10||-	=10||-	=10||-	=10||-	=10||-	=10||-	=10||-	=10||-	=10||-	=10||-	=10||-
!	!	!	!	!	!	!LO:TX:a:t=11	!LO:TX:a:t=11	!LO:TX:a:t=11.	!	!	!
2E-\	.	.	2E-\	.	.	00r	00r	00r	00r	4rc	.
.	.	.	.	.	.	.	.	.	.	2e-/	In-
2AA-/	.	.	2AA-/	.	.	.	.	.	.	.	.
.	.	.	.	.	.	.	.	.	.	4f/	-ter
1GG	.	.	1GG	.	.	.	.	.	.	4.g/	bra-
.	.	.	.	.	.	.	.	.	.	8g/	-chi-
!	!	!	!	!	!	!	!	!	!	!LO:TX:t=P:problem:kreska pseudotaktowa	!
.	.	.	.	.	.	.	.	.	.	2g/	-a
=11-	=11-	=11-	=11-	=11-	=11-	=11-	=11-	=11-	=11-	=11-	=11-
2E-\	.	.	2E-\	.	.	.	.	.	.	4r	.
*	*	*	*	*	*	*	*	*	*	*2\right	*ij
.	.	.	.	.	.	.	.	.	.	2g/	In-
2C/	.	.	2C/	.	.	.	.	.	.	.	.
.	.	.	.	.	.	.	.	.	.	4a-\	-ter
!LO:TX:t=P:problem:kreska pseudotaktowa	!	!	!LO:TX:t=P:problem:kreska pseudotaktowa	!	!	!	!	!	!	!	!
1BB-	.	.	1BB-	.	.	.	.	.	.	4.b-\	bra-
.	.	.	.	.	.	.	.	.	.	8b-\	-chi-
!	!	!	!	!	!	!	!	!	!	!LO:TX:t=P:problem:kreska pseudotaktowa	!
.	.	.	.	.	.	.	.	.	.	2b-\	-a
*	*	*	*	*	*	*	*	*	*	*	*Xij
=12-	=12-	=12-	=12-	=12-	=12-	=12-	=12-	=12-	=12-	=12-	=12-
2E-\	.	.	2E-\	.	.	00r	00r	00r	00r	4b-\	bra-
.	.	.	.	.	.	.	.	.	.	8b-\	-chi-
.	.	.	.	.	.	.	.	.	.	8b-\	-a
4C/	.	.	4C/	.	.	.	.	.	.	4ee-\	Sal-
8Dny\L	.	.	8Dny\L	.	.	.	.	.	.	4dd\	-va-
8E-\J	.	.	8E-\J	.	.	.	.	.	.	.	.
1F	.	.	1F	.	.	.	.	.	.	2cc\	-to-
.	.	.	.	.	.	.	.	.	.	2cc\	-ris
=13-	=13-	=13-	=13-	=13-	=13-	=13-	=13-	=13-	=13-	=13-	=13-
2E-\	.	.	2E-\	.	.	.	.	.	.	8dd\	Sal-
.	.	.	.	.	.	.	.	.	.	8cc\	-va-
.	.	.	.	.	.	.	.	.	.	8ee-\	-to-
.	.	.	.	.	.	.	.	.	.	8dd\	-ris
!	!	!	!	!	!	!	!	!	!	!LO:LB:g=original	!
!LO:TX:t=P:problem:kreska pseudotaktowa	!	!	!LO:TX:t=P:problem:kreska pseudotaktowa	!	!	!	!	!	!	!LO:TX:t=P:problem:kreska pseudotaktowa	!
2F\	.	.	2F\	.	.	.	.	.	.	2cc\	me-
!LO:LB:g=original	!	!	!	!	!	!	!	!	!	!	!
2BB-/	.	.	2BB-/	.	.	.	.	.	.	2b-\	-i
2E-\	.	.	2E-\	.	.	.	.	.	.	8g/	Sal-
.	.	.	.	.	.	.	.	.	.	8f/	-va-
.	.	.	.	.	.	.	.	.	.	8a-\	-to-
!	!	!	!	!	!	!	!	!	!	!LO:TX:t=P:problem:kreska pseudotaktowa	!
.	.	.	.	.	.	.	.	.	.	8g/	-ris
=14-	=14-	=14-	=14-	=14-	=14-	=14-	=14-	=14-	=14-	=14-	=14-
2AA-/	.	.	2AA-/	.	.	0r	0r	0r	0r	8g/	Sal-
.	.	.	.	.	.	.	.	.	.	8f/	-va-
.	.	.	.	.	.	.	.	.	.	8e-/	-to-
.	.	.	.	.	.	.	.	.	.	8f/	-ris
!LO:TX:t=P:problem:kreska pseudotaktowa	!	!	!LO:TX:t=P:problem:kreska pseudotaktowa	!	!	!	!	!	!	!LO:TX:t=P:problem:kreska pseudotaktowa	!
2BB-/	.	.	2BB-/	.	.	.	.	.	.	2f/	me-
4EE-/	.	.	4EE-/	.	.	.	.	.	.	4e-/	-i
!	!	!	!LO:TX:t=P:problem: główka nuty przekreślona	!	!	!	!	!	!	!	!
2E-\	.	.	2E-\	.	.	.	.	.	.	2e-/	in-
!	!	!	!LO:TX:t=P:problem:kreska pseudotaktowa	!	!	!	!	!	!	!	!
4BB-/	.	.	4BB-/	.	.	.	.	.	.	4f/	-ter
=15-	=15-	=15-	=15-	=15-	=15-	=15-	=15-	=15-	=15-	=15-	=15-
!LO:TX:t=P:problem:kreska pseudotaktowa	!	!	!	!	!	!	!	!	!	!	!
1E-	.	.	1E-	.	.	1r	1r	1r	1r	4.g/	bra-
.	.	.	.	.	.	.	.	.	.	8g/	-chi-
.	.	.	.	.	.	.	.	.	.	2g/	-a
!	!	!	!	!	!	!	!	!	!	!LO:TX:a:t=7.	!
2C/	.	.	2C/	.	.	4rc	4r	4re	4r	00r	.
!	!	!	!	!	!	!LO:TX:a:t=Inter brachia.	!LO:TX:b:t=Inter brachia	!LO:TX:a:t=Inter brachia.	!LO:TX:b:t=Inter brachia	!	!
.	.	.	.	.	.	2c/	2g/	2e-/	2g/	.	.
!	!	!	!LO:TX:t=P:problem:kreska pseudotaktowa	!	!	!	!	!	!	!	!
2AA-/	.	.	2AA-/	.	.	.	.	.	.	.	.
.	.	.	.	.	.	4c/	4f/	4f/	4a-\	.	.
=16-	=16-	=16-	=16-	=16-	=16-	=16-	=16-	=16-	=16-	=16-	=16-
1GG	.	.	1GG	.	.	4.B-/	4.g/	4.d/	4.b-\	.	.
.	.	.	.	.	.	8B-/	8g/	8d/	8b-\	.	.
!	!	!	!	!	!	!	!LO:TX:t=P:problem:kreska pseudotaktowa	!LO:TX:t=P:problem:kreska pseudotaktowa	!LO:TX:t=P:problem:kreska pseudotaktowa	!	!
.	.	.	.	.	.	2B-/	2g/	2d/	2b-\	.	.
2G\	.	.	2G\	.	.	4rA	4rc	4r	4ra	.	.
.	.	.	.	.	.	2d/	4d/	2g/	2b-\	.	.
!LO:TX:t=P:problem:kreska pseudotaktowa	!	!	!	!	!	!	!	!	!	!	!
!	!	!	!LO:TX:t=P:problem:kreska pseudotaktowa	!	!	!	!	!	!	!	!
2E-\	.	.	2E-\	.	.	.	2e-/	.	.	.	.
!	!	!	!	!	!	!	!	!	!LO:TX:t=P:problem:kreska pseudotaktowa	!	!
.	.	.	.	.	.	4c/	.	4a-\	4cc\	.	.
=17-	=17-	=17-	=17-	=17-	=17-	=17-	=17-	=17-	=17-	=17-	=17-
1D	.	.	1D	.	.	4.B-/	4.f/	4.b-\	4.dd\	.	.
.	.	.	.	.	.	8c/	8f/	8b-\	8dd\	.	.
!	!	!	!	!	!	!LO:TX:t=P:problem:kreska pseudotaktowa	!LO:TX:t=P:problem:kreska pseudotaktowa	!LO:TX:t=P:problem:kreska pseudotaktowa	!LO:TX:t=P:problem:kreska pseudotaktowa	!	!
.	.	.	.	.	.	2d/	2f/	2b-\	2dd\	.	.
2E-\	.	.	2E-\	.	.	4B-/	8g\L	8b-\L	8dd\L	0r	.
.	.	.	.	.	.	.	8g\J	8a-\	8cc\	.	.
.	.	.	.	.	.	4G/	16g\LL	8cc\	8ee-\	.	.
.	.	.	.	.	.	.	16a-\J	.	.	.	.
.	.	.	.	.	.	.	8b-\J	8b-\J	8dd\J	.	.
!	!	!	!LO:TX:t=P:problem:kreska pseudotaktowa	!	!	!	!	!	!	!	!
!LO:TX:t=P:problem:kreska pseudotaktowa	!	!	!	!	!	!	!LO:TX:t=P:problem:kreska pseudotaktowa	!LO:LB:g=original	!	!	!
2F\	.	.	2F\	.	.	8c/L	2f/	4b-\	2cc\	.	.
.	.	.	.	.	.	16d/L	.	.	.	.	.
.	.	.	.	.	.	16e-/JJ	.	.	.	.	.
!	!	!	!	!	!	!	!	!LO:TX:t=P:problem:kreska pseudotaktowa	!	!	!
!	!	!	!	!	!	!	!	!LO:N:acc=#	!	!	!
.	.	.	.	.	.	8f/L	.	4an\	.	.	.
!	!	!	!	!	!	!LO:TX:t=P:problem:kreska pseudotaktowa	!	!	!	!	!
.	.	.	.	.	.	8e-/J	.	.	.	.	.
*	*	*	*custos:BB	*	*	*	*	*	*	*	*
!	!	!	!LO:LB:g=original	!	!	!LO:LB:g=original	!LO:LB:g=original	!	!	!	!
=18-	=18-	=18-	=18-	=18-	=18-	=18-	=18-	=18-	=18-	=18-	=18-
2BB-/	.	.	2BB-/	.	.	4d/	4f/	4b-\	4b-\	.	.
.	.	.	.	.	.	8d/L	2f/	2d/	2f/	.	.
.	.	.	.	.	.	8c/J	.	.	.	.	.
2GG/	.	.	2GG/	.	.	2B-/	.	.	.	.	.
.	.	.	.	.	.	.	4e-/	4e-/	4g/	.	.
!LO:TX:t=P:problem:kreska pseudotaktowa	!	!	!LO:TX:t=P:problem:kreska pseudotaktowa	!	!	!	!	!	!LO:LB:g=original	!	!
1FF	.	.	1FF	.	.	4.A-y/	4.f/	4.c/	4.a-\	1r	.
.	.	.	.	.	.	8A-/	8f/	8c/	8a-\	.	.
.	.	.	.	.	.	2A-/	2f/	2c/	2a-\	.	.
=19-	=19-	=19-	=19-	=19-	=19-	=19-	=19-	=19-	=19-	=19-	=19-
2F\	.	.	2F\	.	.	0rg	0rg	0rg	0r	4r	.
*	*	*	*	*	*	*	*	*	*	*	*ij
.	.	.	.	.	.	.	.	.	.	2a-\	in-
2D-X/	.	.	2D-X/	.	.	.	.	.	.	.	.
.	.	.	.	.	.	.	.	.	.	4b-\	-ter
2C/	.	.	2C/	.	.	.	.	.	.	4.cc\	bra-
.	.	.	.	.	.	.	.	.	.	8cc\	-chi-
!LO:TX:t=P:problem:kreska pseudotaktowa	!	!	!LO:TX:t=P:problem:kreska pseudotaktowa	!	!	!	!	!	!	!LO:TX:t=P:problem:kreska pseudotaktowa	!
2F\	.	.	2F\	.	.	.	.	.	.	2cc\	-a
!	!	!	!	!	!	!	!	!	!	!LO:LB:g=original	!
=20-	=20-	=20-	=20-	=20-	=20-	=20-	=20-	=20-	=20-	=20-	=20-
2BB-/	.	.	2BB-/	.	.	4rc	4re	4re	4r	4r	.
.	.	.	.	.	.	4d/	2f/	2f/	2b-\	2dd\	in-
2GG/	.	.	2GG/	.	.	2B-/	.	.	.	.	.
.	.	.	.	.	.	.	4e-/	4g/	4b-\	4ee-\	-ter
1FF	.	.	1FF	.	.	4.f/	4.c/	4.a-y\	4.cc\	4.ff\	bra-
.	.	.	.	.	.	8f/	8c/	8a-\	8cc\	8ff\	-chi-
!	!	!	!	!	!	!	!	!	!	!LO:TX:t=P:problem:kreska pseudotaktowa	!
.	.	.	.	.	.	2f/	2c/	2a-\	2cc\	2ff\	-a
*	*	*	*	*	*	*	*	*	*	*	*Xij
=21-	=21-	=21-	=21-	=21-	=21-	=21-	=21-	=21-	=21-	=21-	=21-
!	!	!	!	!	!	!	!LO:TX:a:t=1.	!	!	!	!
2BB-/	.	.	2BB-/	.	.	1rg	1rf	1rg	1rg	8dd\	Sal-
.	.	.	.	.	.	.	.	.	.	8cc\	-va-
.	.	.	.	.	.	.	.	.	.	8ee-\	-to-
.	.	.	.	.	.	.	.	.	.	8dd\	-ris
4E-\	.	.	4E-\	.	.	.	.	.	.	2cc\	me-
!LO:TX:t=P:problem:kreska pseudotaktowa	!	!	!LO:TX:t=P:problem:kreska pseudotaktowa	!	!	!	!	!	!	!	!
4F\	.	.	4F\	.	.	.	.	.	.	.	.
2BB-/	.	.	2BB-/	.	.	4rc	4rc	4re	4re	2b-\	-i
.	.	.	.	.	.	2B-/	2d/	2f/	2f/	.	.
2GG/	.	.	2GG/	.	.	.	.	.	.	2r	.
!	!	!	!	!	!	!	!LO:TX:t=P:problem:kreska pseudotaktowa	!LO:TX:t=P:problem:kreska pseudotaktowa	!LO:TX:t=P:problem:kreska pseudotaktowa	!	!
.	.	.	.	.	.	4B-/	4e-/	4e-/	4g/	.	.
=22-	=22-	=22-	=22-	=22-	=22-	=22-	=22-	=22-	=22-	=22-	=22-
!LO:TX:t=P:problem:kreska pseudotaktowa	!	!	!LO:TX:t=P:problem:kreska pseudotaktowa	!	!	!	!	!	!	!	!
1FF	.	.	1FF	.	.	4.A-/	4.c/	4.f/	4.a-\	0r	.
.	.	.	.	.	.	8A-/	8c/	8f/	8a-\	.	.
!	!	!	!	!	!	!LO:TX:t=P:problem:kreska pseudotaktowa	!	!	!	!	!
.	.	.	.	.	.	2A-/	2c/	2f/	2a-\	.	.
2GG/	.	.	2GG/	.	.	2B-/	2e-/	8e-/L	(8g/L	.	.
.	.	.	.	.	.	.	.	8d/	8f/J)	.	.
.	.	.	.	.	.	.	.	8f/	(8a-\L	.	.
.	.	.	.	.	.	.	.	8e-/J	8g\J)	.	.
!	!	!	!	!	!	!	!	!	!LO:TX:t=P:problem:kreska pseudotaktowa	!	!
4AA-/	.	.	4AA-/	.	.	4c/	4c/	4e-/	2f/	.	.
!LO:TX:t=P:problem:kreska pseudotaktowa	!	!	!LO:TX:t=P:problem:kreska pseudotaktowa	!	!	!	!LO:TX:t=P:problem:kreska pseudotaktowa	!LO:TX:t=P:problem:kreska pseudotaktowa	!	!	!
4BB-/	.	.	4BB-/	.	.	4d/	4B-/	4d/	.	.	.
!	!	!	!	!	!	!	!	!LO:LB:g=original	!	!	!
=23-	=23-	=23-	=23-	=23-	=23-	=23-	=23-	=23-	=23-	=23-	=23-
4E-\	.	.	4E-\	.	.	4B-/	4B-/	4e-/	4e-/	4r	.
!	!	!	!LO:TX:t=P:problem: główka nuty przekreślona	!	!	!	!	!	!	!	!
2E-\	.	.	2E-\	.	.	2B-/	2B-/	2e-/	2e-/	2e-/	in-
4BB-/	.	.	4BB-/	.	.	4B-/	4d/	4d/	4d/	4f/	-ter
!LO:TX:t=P:problem:kreska pseudotaktowa	!	!	!	!	!	!	!	!	!	!	!
!	!	!	!LO:TX:t=P:problem:kreska pseudotaktowa	!	!	!LO:LB:g=original	!LO:LB:g=original	!	!	!	!
1EE-	.	.	1EE-	.	.	4.G/	4.B-/	4.e-/	4.e-/	4.g/	bra-
.	.	.	.	.	.	8G/	8B-/	8e-/	8e-/	8g/	-chi-
!	!	!	!	!	!	!	!	!	!	!LO:TX:t=P:problem:kreska pseudotaktowa	!
.	.	.	.	.	.	2G/	2B-/	2e-/	2e-/	2g/	-a
=24-	=24-	=24-	=24-	=24-	=24-	=24-	=24-	=24-	=24-	=24-	=24-
2E-\	.	.	2E-\	.	.	00r	00r	00r	00r	4r	.
.	.	.	.	.	.	.	.	.	.	4.g/	in-
2C/	.	.	2C/	.	.	.	.	.	.	.	.
.	.	.	.	.	.	.	.	.	.	8g/	-ter
.	.	.	.	.	.	.	.	.	.	8a-\	in-
!	!	!	!	!	!	!	!	!	!	!LO:TX:t=P:problem:kreska pseudotaktowa	!
.	.	.	.	.	.	.	.	.	.	8a-\	-ter
!LO:TX:t=P:problem:kreska pseudotaktowa	!	!	!LO:TX:t=P:problem:kreska pseudotaktowa	!	!	!	!	!	!	!	!
1BB-	.	.	1BB-	.	.	.	.	.	.	4.b-\	bra-
.	.	.	.	.	.	.	.	.	.	8b-\	-chi-
.	.	.	.	.	.	.	.	.	.	2b-\	-a
!	!	!	!	!	!	!	!	!	!	!LO:LB:g=original	!
=25-	=25-	=25-	=25-	=25-	=25-	=25-	=25-	=25-	=25-	=25-	=25-
2G\	.	.	2G\	.	.	.	.	.	.	8b-\	Sal-
.	.	.	.	.	.	.	.	.	.	8cc\	-va-
.	.	.	.	.	.	.	.	.	.	8dd\	-to-
.	.	.	.	.	.	.	.	.	.	8b-\	-ris
2F\	.	.	2F\	.	.	.	.	.	.	8cc\	Sal-
.	.	.	.	.	.	.	.	.	.	8dd\	-va-
.	.	.	.	.	.	.	.	.	.	8ee-\	-to-
!	!	!	!	!	!	!	!	!	!	!LO:TX:t=P:problem:kreska pseudotaktowa	!
.	.	.	.	.	.	.	.	.	.	8cc\	-ris
2E-\	.	.	2E-\	.	.	.	.	.	.	(8dd\L	Je-
.	.	.	.	.	.	.	.	.	.	8cc\J)	.
.	.	.	.	.	.	.	.	.	.	(8ee-\L	-s(um)
.	.	.	.	.	.	.	.	.	.	8dd\J)	.
!	!	!	!LO:TX:t=P:problem:kreska pseudotaktowa	!	!	!	!	!	!	!	!
!LO:TX:t=P:problem:kreska pseudotaktowa	!	!	!	!	!	!	!	!	!	!LO:TX:t=P:problem:kreska pseudotaktowa	!
2F\	.	.	2F\	.	.	.	.	.	.	2cc\	Chri-
*	*	*	*custos:BB-	*	*	*	*	*	*	*	*
!	!	!	!LO:LB:g=original	!	!	!	!	!	!LO:LB:g=original	!	!
=26-	=26-	=26-	=26-	=26-	=26-	=26-	=26-	=26-	=26-	=26-	=26-
2BB-/	.	.	2BB-/	.	.	4rc	4re	4re	4r	4b-\	-st(um)
.	.	.	.	.	.	2d/	2f/	2b-\	2dd\	2f/	in-
2GG/	.	.	2GG/	.	.	.	.	.	.	.	.
.	.	.	.	.	.	4B-/	4e-/	4b-\	4ee-\	4g/	-ter
1FF	.	.	1FF	.	.	4.c/	4.f/	4.a-\	4.cc\	4.a-\	bra-
.	.	.	.	.	.	8c/	8f/	8a-\	8cc\	8a-\	-chi-
!	!	!	!	!	!	!	!	!LO:TX:t=P:problem:kreska pseudotaktowa	!LO:TX:t=P:problem:kreska pseudotaktowa	!	!
.	.	.	.	.	.	2c/	2f/	2a-\	2cc\	2a-\	-a
=27-	=27-	=27-	=27-	=27-	=27-	=27-	=27-	=27-	=27-	=27-	=27-
2BB-/	.	.	2BB-/	.	.	2B-/	2f/	8b-\L	8dd\L	1r	.
.	.	.	.	.	.	.	.	8a-\	8cc\	.	.
.	.	.	.	.	.	.	.	8cc\	8ee-\	.	.
.	.	.	.	.	.	.	.	8b-\J	8dd\J	.	.
!LO:TX:t=P:problem:kreska pseudotaktowa	!	!	!LO:TX:t=P:problem:kreska pseudotaktowa	!	!	!	!	!	!	!	!
2F\	.	.	2F\	.	.	2c/	2f/	4b-\	2cc\	.	.
!	!	!	!	!	!	!	!	!LO:N:acc=#	!	!	!
.	.	.	.	.	.	.	.	4an\	.	.	.
2BB-/	.	.	2BB-/	.	.	4d/	4f/	4b-\	4b-\	4rc	.
*	*	*	*	*	*	*	*	*	*	*	*ij
.	.	.	.	.	.	2d/	2f/	2f/	2b-\	2d/	in-
2GG/	.	.	2GG/	.	.	.	.	.	.	.	.
!	!	!	!	!	!	!	!LO:TX:t=P:problem:kreska pseudotaktowa	!LO:TX:t=P:problem:kreska pseudotaktowa	!LO:TX:t=P:problem:kreska pseudotaktowa	!	!
.	.	.	.	.	.	4B-/	4e-/	4g/	4b-\	4e-/	-ter
=28-	=28-	=28-	=28-	=28-	=28-	=28-	=28-	=28-	=28-	=28-	=28-
1FF	.	.	1FF	.	.	4.c/	4c/	4.a-y\	4.a-\	4.f/	bra-
.	.	.	.	.	.	.	4f/	.	.	.	.
.	.	.	.	.	.	8c/	.	8a-\	8a-\	8f/	-chi-
.	.	.	.	.	.	2c/	2f/	2a-\	2a-\	2f/	-a
!	!	!	!	!	!	!	!	!	!	!LO:LB:g=original	!
*	*	*	*	*	*	*	*	*	*	*	*Xij
2BB-/	.	.	2BB-/	.	.	2d/	2d/	2f/	2b-\	8f/	Sal-
.	.	.	.	.	.	.	.	.	.	8g/	-va-
.	.	.	.	.	.	.	.	.	.	8a-\	-to-
.	.	.	.	.	.	.	.	.	.	8f/	-ris
!LO:TX:t=P:problem:kreska pseudotaktowa	!	!	!LO:TX:t=P:problem:kreska pseudotaktowa	!	!	!	!	!	!	!	!
[2AA-/	.	.	[2AA-/	.	.	1c/	1e-/	1c/	2cc\	8g/	Sal-
.	.	.	.	.	.	.	.	.	.	8f/	-va-
.	.	.	.	.	.	.	.	.	.	8a-\	-to-
.	.	.	.	.	.	.	.	.	.	8g/	-ris
=29-	=29-	=29-	=29-	=29-	=29-	=29-	=29-	=29-	=29-	=29-	=29-
4AA-/]	.	.	4AA-/]	.	.	.	.	.	1f	1f	me-
!LO:N:acc=#	!	!	!LO:N:acc=#	!	!	!	!	!	!	!	!
4AAn/	.	.	4AAn/	.	.	.	.	.	.	.	.
!	!	!	!	!	!	!	!	!LO:TX:t=P:problem:kreska pseudotaktowa	!	!	!
2BB-/	.	.	2BB-/	.	.	2B-/	2d/	2d/	.	.	.
!	!	!	!LO:TX:t=P:problem:kreska pseudotaktowa	!	!	!	!	!LO:LB:g=original	!	!	!
1EE-	.	.	1EE-	.	.	1B-	1e-	1B-	1g	1e-	-i
!LO:LB:g=original	!	!	!	!	!	!	!LO:LB:g=original	!	!	!	!
=30-	=30-	=30-	=30-	=30-	=30-	=30-	=30-	=30-	=30-	=30-	=30-
*M3/2	*	*	*M3/2	*	*	*M3/2	*M3/2	*M3/2	*M3/2	*M3/2	*
!	!	!	!	!	!	!LO:TX:a:t=2	!LO:N:vis=0	!LO:N:vis=0	!LO:N:vis=0	!	!
!	!	!	!	!	!	!LO:N:vis=0	!	!	!	!	!
1.E-	.	.	1.E-	.	.	0.r	0.rf	0.rf	0.rf	2rf	.
.	.	.	.	.	.	.	.	.	.	2rf	.
!	!	!	!	!	!	!	!	!	!	!LO:TX:t=P:problem:kreska pseudotaktowa	!
!	!	!	!	!	!	!	!	!	!	!LO:TX:b:t=allegro	!
.	.	.	.	.	.	.	.	.	.	2e-/	&
=31-	=31-	=31-	=31-	=31-	=31-	=31-	=31-	=31-	=31-	=31-	=31-
1.Dny	.	.	1.D	.	.	.	.	.	.	2.f/	vi-
.	.	.	.	.	.	.	.	.	.	4e-/	-ve-
.	.	.	.	.	.	.	.	.	.	2d/	-re
=32-	=32-	=32-	=32-	=32-	=32-	=32-	=32-	=32-	=32-	=32-	=32-
1E-	.	.	1E-	.	.	2rd	2rd	2rd	2rf	2.g/	vi-
.	.	.	.	.	.	2rd	2rd	2rd	2rf	.	.
.	.	.	.	.	.	.	.	.	.	4g/	-ce-
!LO:TX:t=P:problem:kreska pseudotaktowa	!	!	!	!	!	!	!	!	!LO:TX:t=P:problem:kreska pseudotaktowa	!	!
!	!	!	!LO:TX:t=P:problem:kreska pseudotaktowa	!	!	!LO:TX:t=P:problem:kreska pseudotaktowa	!LO:TX:t=P:problem:kreska pseudotaktowa	!LO:TX:t=P:problem:kreska pseudotaktowa	!LO:TX:b:t=allegro.	!	!
2BB-/	.	.	2BB-/	.	.	2B-/	2d/	2d/	2f/	2f/	-re
=33-	=33-	=33-	=33-	=33-	=33-	=33-	=33-	=33-	=33-	=33-	=33-
1E-	.	.	1E-	.	.	2.B-/	2.B-/	2.e-/	2.g/	2e-/	vo-
.	.	.	.	.	.	.	.	.	.	2e-/	-lo
.	.	.	.	.	.	4B-/	4B-/	4e-/	4f/	.	.
!LO:TX:t=P:problem:kreska pseudotaktowa	!	!	!	!	!	!	!	!LO:TX:t=P:problem:kreska pseudotaktowa	!	!LO:TX:t=P:problem:kreska pseudotaktowa	!
2C/	.	.	2C/	.	.	2c/	2e-/	2e-/	2e-/	2rf	.
!	!	!	!	!	!	!	!	!	!LO:LB:g=original	!LO:LB:g=original	!
=34-	=34-	=34-	=34-	=34-	=34-	=34-	=34-	=34-	=34-	=34-	=34-
1FF	.	.	1FF	.	.	2.c/	2.c/	2.f/	2.a-\	2rf	.
.	.	.	.	.	.	.	.	.	.	2rf	.
.	.	.	.	.	.	4c/	4c/	4f/	4a-\	.	.
!LO:TX:t=P:problem:kreska pseudotaktowa	!	!	!LO:TX:t=P:problem:kreska pseudotaktowa	!	!	!	!	!LO:N:acc=#	!	!LO:TX:t=P:problem:kreska pseudotaktowa	!
2C/	.	.	2C/	.	.	2c/	2c/	2en/	2g/	2g/	et
=35-	=35-	=35-	=35-	=35-	=35-	=35-	=35-	=35-	=35-	=35-	=35-
1F	.	.	1F	.	.	2c/	2A-/	2f/	2f/	2.a-\	vi-
.	.	.	.	.	.	2c/	2A-/	2f/	2f/	.	.
.	.	.	.	.	.	.	.	.	.	4g/	-ve-
2D-X/	.	.	2D-X/	.	.	2rd	2rd	2rf	2rf	2f/	-re
=36-	=36-	=36-	=36-	=36-	=36-	=36-	=36-	=36-	=36-	=36-	=36-
!	!	!	!	!	!	!	!LO:N:vis=0	!LO:N:vis=0	!LO:N:vis=0	!	!
1BB-	.	.	1BB-	.	.	0.rf	0.rf	0.rf	0.rf	2.b-\	vi-
.	.	.	.	.	.	.	.	.	.	4a-\	-ve-
!LO:TX:t=P:problem:kreska pseudotaktowa	!	!	!LO:TX:t=P:problem:kreska pseudotaktowa	!	!	!	!	!	!	!	!
2E-\	.	.	2E-\	.	.	.	.	.	.	2g/	-re
=37-	=37-	=37-	=37-	=37-	=37-	=37-	=37-	=37-	=37-	=37-	=37-
2C/	.	.	2C/	.	.	.	.	.	.	2.cc\	vi-
2D-X/	.	.	2D-X/	.	.	.	.	.	.	.	.
.	.	.	.	.	.	.	.	.	.	4cc\	-ve-
!	!	!	!	!	!	!	!	!	!	!LO:TX:t=P:problem:kreska pseudotaktowa	!
2E-\	.	.	2E-\	.	.	.	.	.	.	2b-\	-re
=38-	=38-	=38-	=38-	=38-	=38-	=38-	=38-	=38-	=38-	=38-	=38-
1AA-y	.	.	1AA-y	.	.	2rd	2rf	2rf	2rf	2a-\	vo-
.	.	.	.	.	.	2rd	2rf	2rf	2rf	2a-\	-lo
!	!	!	!LO:TX:t=P:problem:kreska pseudotaktowa	!	!	!	!	!	!	!	!
!LO:TX:t=P:problem:kreska pseudotaktowa	!	!	!	!	!	!LO:TX:t=P:problem:kreska pseudotaktowa	!	!LO:TX:t=P:problem:kreska pseudotaktowa	!LO:TX:t=P:problem:kreska pseudotaktowa	!	!
*	*	*	*	*	*	*	*2\right	*	*	*	*
2A-\	.	.	2A-\	.	.	2c/	2a-\	2c/	2a-\	2r	.
*	*	*	*custos:G	*	*	*	*	*	*	*	*
!	!	!	!LO:LB:g=original	!	!	!	!	!	!	!	!
=39-	=39-	=39-	=39-	=39-	=39-	=39-	=39-	=39-	=39-	=39-	=39-
!	!	!	!	!	!	!	!	!	!	!LO:TX:a:t=3	!
1.G	.	.	1.G	.	.	1e-	2.e-/	2.g/	2.b-\	0.rf	.
.	.	.	.	.	.	.	4f/	4a-\	4a-\	.	.
.	.	.	.	.	.	2e-/	2g/	2b-\	2g/	.	.
!LO:LB:g=original	!	!	!	!	!	!	!	!	!	!	!
=40-	=40-	=40-	=40-	=40-	=40-	=40-	=40-	=40-	=40-	=40-	=40-
1.A-	.	.	1.A-	.	.	2.e-/	2.c/	2.a-\	2.cc\	.	.
.	.	.	.	.	.	4d/	4d/	4b-\	4b-\	.	.
.	.	.	.	.	.	2c/	2e-/	2cc\	2a-\	.	.
=41-	=41-	=41-	=41-	=41-	=41-	=41-	=41-	=41-	=41-	=41-	=41-
!	!	!	!	!	!	!	!	!	!	!LO:N:vis=1	!
1B-	.	.	1B-	.	.	1f	2.B-/	2.b-\	2.dd-X\	1.rg	.
.	.	.	.	.	.	.	4B-/	4b-\	4dd-\	.	.
!	!	!	!	!	!	!	!	!LO:TX:t=P:problem:kreska pseudotaktowa	!	!	!
!LO:TX:t=P:problem:kreska pseudotaktowa	!	!	!LO:TX:t=P:problem:kreska pseudotaktowa	!	!	!	!LO:TX:t=P:problem:kreska pseudotaktowa	!LO:N:acc=#	!	!	!
2F\	.	.	2F\	.	.	2f/	2c/	2an\	2cc\	.	.
!	!	!	!	!	!	!	!LO:LB:g=original	!LO:LB:g=original	!	!	!
=42-	=42-	=42-	=42-	=42-	=42-	=42-	=42-	=42-	=42-	=42-	=42-
1BB-	.	.	1BB-	.	.	2f/	2d/	2b-\	2b-\	2rf	.
.	.	.	.	.	.	2f/	2d/	2b-\	2b-\	2rf	.
!	!	!	!	!	!	!	!	!	!	!LO:TX:t=P:problem:kreska pseudotaktowa	!
2E-\	.	.	2E-\	.	.	2rf	2rd	2r	2r	2b-\	&
!	!	!	!	!	!	!LO:LB:g=original	!	!	!	!	!
=43-	=43-	=43-	=43-	=43-	=43-	=43-	=43-	=43-	=43-	=43-	=43-
!	!	!	!	!	!	!LO:N:vis=0	!LO:N:vis=0	!LO:N:vis=0	!LO:N:vis=0	!	!
1C	.	.	1C	.	.	0.rf	0.rf	0.r	0.rf	2.cc\	vi-
.	.	.	.	.	.	.	.	.	.	4b-\	-ve-
!LO:TX:t=P:problem:kreska pseudotaktowa	!	!	!LO:TX:t=P:problem:kreska pseudotaktowa	!	!	!	!	!	!	!	!
2F\	.	.	2F\	.	.	.	.	.	.	2a-\	-re
=44-	=44-	=44-	=44-	=44-	=44-	=44-	=44-	=44-	=44-	=44-	=44-
1D-X	.	.	1D-X	.	.	.	.	.	.	2.dd-X\	vi-
.	.	.	.	.	.	.	.	.	.	4cc\	-ve-
2E-\	.	.	2E-\	.	.	.	.	.	.	2b-\	-re
!	!	!	!	!	!	!	!	!	!	!LO:LB:g=original	!
=45-	=45-	=45-	=45-	=45-	=45-	=45-	=45-	=45-	=45-	=45-	=45-
!	!	!	!	!	!	!	!	!	!	!LO:N:vis=0	!
1.BB-	.	.	1.BB-	.	.	2.B-/	2.d-X/	2.b-\	2.dd-X\	0.rf	.
.	.	.	.	.	.	4c/	4e-/	4b-\	4cc\	.	.
.	.	.	.	.	.	2d-X/	2f/	2b-\	2b-\	.	.
=46-	=46-	=46-	=46-	=46-	=46-	=46-	=46-	=46-	=46-	=46-	=46-
1.C	.	.	1.C	.	.	2.c/	2.e-/	2.g/	2.ee-\	.	.
.	.	.	.	.	.	4d-X/	4f/	4g/	4dd-X\	.	.
.	.	.	.	.	.	2e-/	2g/	2g/	2cc\	.	.
!	!	!	!	!	!	!	!	!	!LO:LB:g=original	!	!
=47-	=47-	=47-	=47-	=47-	=47-	=47-	=47-	=47-	=47-	=47-	=47-
!LO:TX:t=P:problem:kreska pseudotaktowa	!	!	!LO:TX:t=P:problem:kreska pseudotaktowa	!	!	!LO:N:vis=0	!LO:N:vis=0	!LO:N:vis=0	!LO:N:vis=0	!	!
1.C	.	.	1.C	.	.	0.rf	0.rg	0.r	0.rf	2.ee-\	vi-
.	.	.	.	.	.	.	.	.	.	4ddny\	-ve-
.	.	.	.	.	.	.	.	.	.	2cc\	-re
=48-	=48-	=48-	=48-	=48-	=48-	=48-	=48-	=48-	=48-	=48-	=48-
1.D-X	.	.	1.D-X	.	.	.	.	.	.	2.ff\	vi-
.	.	.	.	.	.	.	.	.	.	4ee-\	-ve-
.	.	.	.	.	.	.	.	.	.	2dd-X\	-re
=49-	=49-	=49-	=49-	=49-	=49-	=49-	=49-	=49-	=49-	=49-	=49-
!	!	!	!	!	!	!	!	!	!	!LO:N:vis=0	!
1.D-	.	.	1.D-X	.	.	2.d-X/	2.b-\	2.dd-X\	2.ff\	0.rf	.
.	.	.	.	.	.	4e-/	4b-\	4dd-\	4ee-\	.	.
.	.	.	.	.	.	2f/	2b-\	2dd-\	2dd-X\	.	.
=50-	=50-	=50-	=50-	=50-	=50-	=50-	=50-	=50-	=50-	=50-	=50-
1E-	.	.	1E-	.	.	2.e-/	2.ee-\	2.b-\	2.gg-X\	.	.
.	.	.	.	.	.	4e-/	4ee-\	4b-\	4gg-\	.	.
2BB-/	.	.	2BB-/	.	.	2f/	2dd\	2b-\	2ff\	.	.
=51-	=51-	=51-	=51-	=51-	=51-	=51-	=51-	=51-	=51-	=51-	=51-
!LO:TX:t=P:problem:kreska pseudotaktowa	!	!	!LO:TX:t=P:problem:kreska pseudotaktowa	!	!	!	!	!	!	!	!
1.E-	.	.	1.E-	.	.	2g-X/	2ee-\	2b-\	2ee-\	2rf	.
.	.	.	.	.	.	2g-/	2ee-\	2b-\	2ee-\	2rf	.
.	.	.	.	.	.	2r	2rdd	2r	2rb	(4e-/	&
!	!	!	!	!	!	!	!	!	!	!LO:TX:t=P:problem:kreska pseudotaktowa	!
.	.	.	.	.	.	.	.	.	.	4f/)	.
!LO:LB:g=original	!	!	!	!	!	!	!	!	!	!	!
=52-	=52-	=52-	=52-	=52-	=52-	=52-	=52-	=52-	=52-	=52-	=52-
!	!	!	!	!	!	!LO:TX:a:t=17.	!LO:TX:a:t=17.	!LO:TX:a:t=17.	!	!LO:TX:b:t=adagio	!
!	!	!	!	!	!	!LO:N:vis=00	!LO:N:vis=00	!LO:N:vis=00	!	!	!
1.E-	.	.	1.E-	.	.	00.r	00.r	00.r	1.rg	(1.g-X	mo-
=53-	=53-	=53-	=53-	=53-	=53-	=53-	=53-	=53-	=53-	=53-	=53-
1.E-	.	.	1.E-	.	.	.	.	.	2rf	1.f)	.
.	.	.	.	.	.	.	.	.	2rf	.	.
.	.	.	.	.	.	.	.	.	(<4e-/	.	.
!	!	!	!	!	!	!	!	!	!LO:TX:t=P:problem:kreska pseudotaktowa	!	!
.	.	.	.	.	.	.	.	.	4f/)	.	.
=54-	=54-	=54-	=54-	=54-	=54-	=54-	=54-	=54-	=54-	=54-	=54-
1.E-	.	.	1.E-	.	.	.	.	.	(1.g-X	1.e-	-ri
=55-	=55-	=55-	=55-	=55-	=55-	=55-	=55-	=55-	=55-	=55-	=55-
!	!	!	!	!	!	!	!	!	!	!LO:N:vis=0	!
1.E-	.	.	1.E-	.	.	.	.	.	1.f)	0.r	.
=56-	=56-	=56-	=56-	=56-	=56-	=56-	=56-	=56-	=56-	=56-	=56-
!LO:TX:t=P:problem:kreska pseudotaktowa	!	!	!LO:TX:t=P:problem:kreska pseudotaktowa	!	!	!LO:N:vis=00	!LO:N:vis=00	!LO:N:vis=00	!	!	!
1.E-	.	.	1.E-	.	.	00.r	00.r	00.r	1e-	.	.
!	!	!	!	!	!	!	!	!	!LO:TX:t=P:problem:kreska pseudotaktowa	!	!
.	.	.	.	.	.	.	.	.	2rf	.	.
!	!	!	!LO:LB:g=original	!	!	!	!	!	!	!	!
=57-	=57-	=57-	=57-	=57-	=57-	=57-	=57-	=57-	=57-	=57-	=57-
2F\	.	.	2F\	.	.	.	.	.	1c	(2e-/	cu-
2G\	.	.	2G\	.	.	.	.	.	.	2.d/)	.
!	!	!	!	!	!	!	!	!	!LO:N:acc=#	!	!
2GG/	.	.	2GG/	.	.	.	.	.	2Bn/	.	.
.	.	.	.	.	.	.	.	.	.	4c/	-pi-
=58-	=58-	=58-	=58-	=58-	=58-	=58-	=58-	=58-	=58-	=58-	=58-
!LO:TX:t=P:problem:kreska pseudotaktowa	!	!	!	!	!	!	!	!	!	!	!
1C	.	.	1C	.	.	.	.	.	1c	1c	-o
!	!	!	!LO:TX:t=P:problem:kreska pseudotaktowa	!	!	!	!	!	!LO:TX:t=P:problem:kreska pseudotaktowa	!	!
2rC	.	.	2r	.	.	.	.	.	2rd	2rd	.
=59-	=59-	=59-	=59-	=59-	=59-	=59-	=59-	=59-	=59-	=59-	=59-
!	!	!	!	!	!	!	!	!	!	!LO:N:acc=#	!
1GG	.	.	1GG	.	.	.	.	.	2.d/	2.Bn/	cu-
.	.	.	.	.	.	.	.	.	4d/	4B/	-pi-
2C/	.	.	2C/	.	.	.	.	.	2e-/	2c/	-o
!	!	!	!	!	!	!	!	!	!LO:LB:g=original	!	!
=60-	=60-	=60-	=60-	=60-	=60-	=60-	=60-	=60-	=60-	=60-	=60-
!LO:TX:t=P:problem:kreska pseudotaktowa	!	!	!	!	!	!LO:N:vis=00	!LO:N:vis=00	!LO:N:vis=00	!LO:N:vis=0	!	!
1.AA-	.	.	1.AA-	.	.	00.rb	00.rb	00.rb	0.rf	2rf	.
.	.	.	.	.	.	.	.	.	.	2gny/	mo-
!	!	!	!	!	!	!	!	!	!	!LO:TX:t=P:problem:kreska pseudotaktowa	!
.	.	.	.	.	.	.	.	.	.	2f/	-ri
=61-	=61-	=61-	=61-	=61-	=61-	=61-	=61-	=61-	=61-	=61-	=61-
1BB-	.	.	1BB-	.	.	.	.	.	.	1f	mo-
2E-\	.	.	2E-\	.	.	.	.	.	.	2e-/	-ri
!	!	!	!	!	!	!	!	!	!	!LO:LB:g=original	!
=62-	=62-	=62-	=62-	=62-	=62-	=62-	=62-	=62-	=62-	=62-	=62-
!	!	!LO:DY:b:t=p.	!	!	!	!	!	!	!	!LO:TX:a:t=1.	!
1BB-	.	p	1BB-	.	.	.	.	.	1d	1.rg	.
!LO:TX:t=P:problem:kreska pseudotaktowa	!	!	!LO:TX:t=P:problem:kreska pseudotaktowa	!	!	!	!	!	!	!	!
2E-\	.	.	2E-\	.	.	.	.	.	2e-/	.	.
!LO:LB:g=original	!	!	!	!	!	!	!	!	!	!	!
=63-	=63-	=63-	=63-	=63-	=63-	=63-	=63-	=63-	=63-	=63-	=63-
!	!	!	!	!	!	!	!	!	!LO:N:vis=0	!	!
2rC	.	.	2rC	.	.	.	.	.	0.rf	2rf	.
!	!	!LO:DY:b:t=f.	!	!	!	!	!	!	!	!	!
2F\	.	f	2F\	.	.	.	.	.	.	2a-\	mo-
!LO:TX:t=P:problem:kreska pseudotaktowa	!	!	!LO:TX:t=P:problem:kreska pseudotaktowa	!	!	!	!	!	!	!	!
2BB-/	.	.	2BB-/	.	.	.	.	.	.	2g/	-ri
=64-	=64-	=64-	=64-	=64-	=64-	=64-	=64-	=64-	=64-	=64-	=64-
!	!	!	!	!	!	!LO:N:vis=00	!LO:N:vis=00	!LO:N:vis=00	!	!	!
1C	.	.	1C	.	.	00.rb	00.rb	00.rb	.	1g	mo-
2FF/	.	.	2FF/	.	.	.	.	.	.	2f/	-ri
=65-	=65-	=65-	=65-	=65-	=65-	=65-	=65-	=65-	=65-	=65-	=65-
!	!	!LO:DY:b:t=p.	!	!	!LO:DY:b:t=p&colon;	!	!	!	!LO:N:acc=#	!	!
1C	.	p	1C	.	p	.	.	.	1en	1.rg	.
2FF/	.	.	2FF/	.	.	.	.	.	2f/	.	.
=66-	=66-	=66-	=66-	=66-	=66-	=66-	=66-	=66-	=66-	=66-	=66-
!	!	!	!	!	!	!	!	!	!LO:N:vis=0	!	!
2rC	.	.	2rC	.	.	.	.	.	0.rf	2rf	.
2rC	.	.	2rC	.	.	.	.	.	.	2rf	.
!LO:TX:t=P:problem:kreska pseudotaktowa	!	!LO:DY:b:t=f.	!LO:TX:t=P:problem:kreska pseudotaktowa	!	!	!	!	!	!	!LO:TX:t=P:problem:kreska pseudotaktowa	!
2C/	.	f	2C/	.	.	.	.	.	.	2g/	&
=67-	=67-	=67-	=67-	=67-	=67-	=67-	=67-	=67-	=67-	=67-	=67-
!	!	!	!	!	!	!	!	!	!	!LO:TX:b:t=allegro	!
1.F	.	.	1.F	.	.	.	.	.	.	2.a-\	vi-
.	.	.	.	.	.	.	.	.	.	4g/	-ve-
.	.	.	.	.	.	.	.	.	.	2f/	-re
=68-	=68-	=68-	=68-	=68-	=68-	=68-	=68-	=68-	=68-	=68-	=68-
!	!	!	!	!	!	!LO:N:vis=1	!	!	!	!	!
1.G	.	.	1.G	.	.	1.r	1.r	1.r	1.rg	2.b-\	vi-
.	.	.	.	.	.	.	.	.	.	4a-\	-ve-
.	.	.	.	.	.	.	.	.	.	2g/	-re
!	!	!	!	!	!	!	!	!LO:LB:g=original	!	!	!
=69-	=69-	=69-	=69-	=69-	=69-	=69-	=69-	=69-	=69-	=69-	=69-
!	!	!	!	!	!	!	!	!	!	!LO:N:vis=0	!
1.A-	.	.	1.A-	.	.	2.e-/	2.a-\	2.a-y\	2.cc\	0.r	.
.	.	.	.	.	.	4e-/	4a-\	4b-\	4b-\	.	.
.	.	.	.	.	.	2e-/	2a-\	2cc\	2a-\	.	.
!	!	!	!	!	!	!LO:LB:g=original	!LO:LB:g=original	!	!	!	!
=70-	=70-	=70-	=70-	=70-	=70-	=70-	=70-	=70-	=70-	=70-	=70-
1B-	.	.	1B-	.	.	2.d-X/	2.f/	2.b-\	2.dd-X\	.	.
.	.	.	.	.	.	4e-/	4f/	4b-\	4dd-\	.	.
!LO:TX:t=P:problem:kreska pseudotaktowa	!	!	!LO:TX:t=P:problem:kreska pseudotaktowa	!	!	!	!	!LO:N:acc=#	!	!	!
2F\	.	.	2F\	.	.	2f/	2f/	2an\	2cc\	.	.
=71-	=71-	=71-	=71-	=71-	=71-	=71-	=71-	=71-	=71-	=71-	=71-
1.BB-	.	.	1.BB-	.	.	2d-X/	2f/	2b-\	2b-\	2r	.
.	.	.	.	.	.	2dny/	2f/	2b-\	2b-\	2r	.
.	.	.	.	.	.	2rd	2rf	2r	2r	4b-\	et
!	!	!	!	!	!	!	!	!	!	!LO:TX:t=P:problem:kreska pseudotaktowa	!
.	.	.	.	.	.	.	.	.	.	4cc\	.
=72-	=72-	=72-	=72-	=72-	=72-	=72-	=72-	=72-	=72-	=72-	=72-
!	!	!	!	!	!	!	!LO:TX:a:t=24.	!LO:N:vis=00	!	!	!
!	!	!	!	!	!	!LO:TX:a:t=24.	!LO:N:vis=00	!	!	!	!
1.BB-	.	.	1.BB-	.	.	00.r	00.r	00.r	1.r	(1.dd-X	mo-
=73-	=73-	=73-	=73-	=73-	=73-	=73-	=73-	=73-	=73-	=73-	=73-
1.BB-	.	.	1.BB-	.	.	.	.	.	2rb	1.cc)	.
.	.	.	.	.	.	.	.	.	2rb	.	.
.	.	.	.	.	.	.	.	.	4b-\	.	.
!	!	!	!	!	!	!	!	!	!LO:TX:t=P:problem:kreska pseudotaktowa	!	!
.	.	.	.	.	.	.	.	.	4cc\	.	.
*	*	*	*custos:BB-	*	*	*	*	*	*	*	*
!	!	!	!LO:LB:g=original	!	!	!	!	!	!	!	!
=74-	=74-	=74-	=74-	=74-	=74-	=74-	=74-	=74-	=74-	=74-	=74-
1.BB-	.	.	1.BB-	.	.	.	.	.	1.dd-X	1b-	-ri
.	.	.	.	.	.	.	.	.	.	2rg	.
=75-	=75-	=75-	=75-	=75-	=75-	=75-	=75-	=75-	=75-	=75-	=75-
!	!	!	!	!	!	!	!	!	!	!LO:N:vis=0	!
1.BB-	.	.	1.BB-	.	.	.	.	.	1.cc	0.r	.
=76-	=76-	=76-	=76-	=76-	=76-	=76-	=76-	=76-	=76-	=76-	=76-
!LO:TX:t=P:problem:kreska pseudotaktowa	!	!	!	!	!	!	!LO:N:vis=00	!LO:N:vis=00	!	!	!
1BB-	.	.	1BB-	.	.	00.r	00.r	00.r	1b-	.	.
!	!	!	!LO:TX:t=P:problem:kreska pseudotaktowa	!	!	!	!	!	!	!	!
2rC	.	.	2rC	.	.	.	.	.	2rb	.	.
!LO:PB:g=original	!	!	!	!	!	!	!	!	!	!	!
=77-	=77-	=77-	=77-	=77-	=77-	=77-	=77-	=77-	=77-	=77-	=77-
2C/	.	.	2C/	.	.	.	.	.	1.rg	(2b-\	cu-
!	!	!	!	!	!	!	!	!	!	!LO:N:acc=#	!
2Dny/	.	.	2Dny/	.	.	.	.	.	.	2.an\)	.
!LO:TX:t=P:problem:kreska pseudotaktowa	!	!	!LO:TX:t=P:problem:kreska pseudotaktowa	!	!	!	!	!	!	!	!
2DD/	.	.	2DD/	.	.	.	.	.	.	.	.
.	.	.	.	.	.	.	.	.	.	4g/	-pi-
=78-	=78-	=78-	=78-	=78-	=78-	=78-	=78-	=78-	=78-	=78-	=78-
2GG/	.	.	2GG/	.	.	.	.	.	2r	1g	-o
!LO:N:acc=#	!	!	!LO:N:acc=#	!	!	!	!	!	!	!	!
2AAn/	.	.	2AAn/	.	.	.	.	.	2r	.	.
!LO:TX:t=P:problem:kreska pseudotaktowa	!	!	!LO:TX:t=P:problem:kreska pseudotaktowa	!	!	!	!	!	!LO:TX:t=P:problem:kreska pseudotaktowa	!	!
2BB-/	.	.	2BB-/	.	.	.	.	.	2b-\	2r	.
!	!	!	!	!	!	!	!	!	!LO:LB:g=original	!LO:LB:g=original	!
=79-	=79-	=79-	=79-	=79-	=79-	=79-	=79-	=79-	=79-	=79-	=79-
!	!	!	!	!	!	!	!	!	!LO:N:acc=#	!	!
2C/	.	.	2C/	.	.	.	.	.	2.an\	1.r	.
2D/	.	.	2D/	.	.	.	.	.	.	.	.
.	.	.	.	.	.	.	.	.	4a\	.	.
2GG/	.	.	2GG/	.	.	.	.	.	2gny/	.	.
=80-	=80-	=80-	=80-	=80-	=80-	=80-	=80-	=80-	=80-	=80-	=80-
!	!	!	!	!	!	!	!LO:N:vis=00	!LO:N:vis=00	!	!	!
1D	.	.	1D	.	.	00.rb	00.rb	00.rb	1.rg	2.f#X/	cu-
.	.	.	.	.	.	.	.	.	.	4f#/	-pi-
!LO:TX:t=P:problem:kreska pseudotaktowa	!	!	!LO:TX:t=P:problem:kreska pseudotaktowa	!	!	!	!	!	!	!	!
2GG/	.	.	2GG/	.	.	.	.	.	.	2g/	-o
=81-	=81-	=81-	=81-	=81-	=81-	=81-	=81-	=81-	=81-	=81-	=81-
1DD	.	.	1DD	.	.	.	.	.	2.f#X/	1.rg	.
.	.	.	.	.	.	.	.	.	4f#/	.	.
!LO:TX:t=P:problem:kreska pseudotaktowa	!	!	!LO:TX:t=P:problem:kreska pseudotaktowa	!	!	!	!	!	!	!	!
2GG/	.	.	2GG/	.	.	.	.	.	2g/	.	.
=82-	=82-	=82-	=82-	=82-	=82-	=82-	=82-	=82-	=82-	=82-	=82-
!	!	!	!	!	!	!	!	!	!	!LO:N:acc=#	!
1FF	.	.	1FF	.	.	.	.	.	1.r	2.an\	cu-
.	.	.	.	.	.	.	.	.	.	4a\	-pi-
!LO:TX:t=P:problem:kreska pseudotaktowa	!	!	!LO:TX:t=P:problem:kreska pseudotaktowa	!	!	!	!	!	!	!	!
2BB-/	.	.	2BB-/	.	.	.	.	.	.	2b-\	-o
=83-	=83-	=83-	=83-	=83-	=83-	=83-	=83-	=83-	=83-	=83-	=83-
!LO:N:acc=#	!	!	!LO:N:acc=#	!	!	!	!	!	!LO:N:acc=#	!	!
1AAn	.	.	1AAn	.	.	.	.	.	2.an\	2.cc\	cu-
.	.	.	.	.	.	.	.	.	4a\	4cc\	-pi-
!LO:TX:t=P:problem:kreska pseudotaktowa	!	!	!	!	!	!	!	!	!	!	!
2BB-/	.	.	2BB-/	.	.	.	.	.	2ddny\	2b-\	-o
=84-	=84-	=84-	=84-	=84-	=84-	=84-	=84-	=84-	=84-	=84-	=84-
!	!	!	!	!	!	!	!LO:N:vis=00	!LO:N:vis=00	!	!	!
1FF	.	.	1FF	.	.	00.rb	00.rb	00.rb	2.cc\	1.r	.
.	.	.	.	.	.	.	.	.	4cc\	.	.
!	!	!	!LO:TX:t=P:problem:kreska pseudotaktowa	!	!	!	!	!	!	!	!
!LO:TX:t=P:problem:kreska pseudotaktowa	!	!	!	!	!	!	!	!	!LO:TX:t=P:problem:kreska pseudotaktowa	!	!
2BB-/	.	.	2BB-/	.	.	.	.	.	2b-\	.	.
*	*	*	*custos:D	*	*	*	*	*	*	*	*
!LO:LB:g=original	!	!	!LO:LB:g=original	!	!	!	!	!	!	!	!
=85-	=85-	=85-	=85-	=85-	=85-	=85-	=85-	=85-	=85-	=85-	=85-
!	!	!	!	!	!	!	!	!	!LO:N:vis=0	!	!
1D	.	.	1D	.	.	.	.	.	0.rg	2r	.
.	.	.	.	.	.	.	.	.	.	2ddny\	mo-
!	!	!	!	!	!	!	!	!	!	!LO:TX:t=P:problem:kreska pseudotaktowa	!
2E-\	.	.	2E-\	.	.	.	.	.	.	2cc\	-ri
=86-	=86-	=86-	=86-	=86-	=86-	=86-	=86-	=86-	=86-	=86-	=86-
1F	.	.	1F	.	.	.	.	.	.	1cc	mo-
!LO:TX:t=P:problem:kreska pseudotaktowa	!	!	!	!	!	!	!	!	!	!	!
2BB-/	.	.	2BB-/	.	.	.	.	.	.	2b-\	-ri
=87-	=87-	=87-	=87-	=87-	=87-	=87-	=87-	=87-	=87-	=87-	=87-
!	!	!LO:DY:b:t=p.	!	!	!	!	!	!	!LO:N:acc=#	!	!
1FF	.	p	1FF	.	p	.	.	.	1an	1.r	.
!LO:TX:t=P:problem:kreska pseudotaktowa	!	!	!LO:TX:t=P:problem:kreska pseudotaktowa	!	!	!	!	!	!	!	!
2BB-/	.	.	2BB-/	.	.	.	.	.	2b-\	.	.
=88-	=88-	=88-	=88-	=88-	=88-	=88-	=88-	=88-	=88-	=88-	=88-
!	!	!	!	!	!	!	!LO:N:vis=00	!LO:N:vis=00	!LO:N:vis=0	!	!
2rC	.	.	2rC	.	.	00.r	00.r	00.r	0.rf	2r	.
!	!	!LO:DY:b:t=f.	!	!	!	!	!	!	!	!LO:N:acc=#	!
2F\	.	f	2F\	.	f	.	.	.	.	2an\	mo-
!LO:TX:t=P:problem:kreska pseudotaktowa	!	!	!LO:TX:t=P:problem:kreska pseudotaktowa	!	!	!	!	!	!	!	!
2BB-/	.	.	2BB-/	.	.	.	.	.	.	2g/	-ri
=89-	=89-	=89-	=89-	=89-	=89-	=89-	=89-	=89-	=89-	=89-	=89-
1C	.	.	1C	.	.	.	.	.	.	1g	mo-
2FF/	.	.	2FF/	.	.	.	.	.	.	2fny/	-ri
=90-	=90-	=90-	=90-	=90-	=90-	=90-	=90-	=90-	=90-	=90-	=90-
!LO:TX:t=P:problem:kreska pseudotaktowa	!	!	!LO:TX:t=P:problem:kreska pseudotaktowa	!	!	!	!	!	!LO:N:acc=#	!	!
1C	.	.	1.C	.	.	.	.	.	1en	1.r	.
!	!	!	!	!	!	!	!	!	!LO:TX:t=P:problem:kreska pseudotaktowa	!	!
2FF	.	.	.	.	.	.	.	.	2fny/	.	.
=91-	=91-	=91-	=91-	=91-	=91-	=91-	=91-	=91-	=91-	=91-	=91-
!	!	!	!	!	!	!	!	!	!LO:N:vis=0	!	!
2rAA	.	.	2rAA	.	.	.	.	.	0.rf	2r	.
!LO:N:acc=#	!	!	!LO:N:acc=#	!	!	!	!	!	!	!	!
1AAn	.	.	1AAn	.	.	.	.	.	.	2f/	mo-
.	.	.	.	.	.	.	.	.	.	2e-/	-ri
=92-	=92-	=92-	=92-	=92-	=92-	=92-	=92-	=92-	=92-	=92-	=92-
!	!	!	!	!	!	!	!LO:N:vis=00	!LO:N:vis=00	!	!	!
1BB-	.	.	1BB-	.	.	00.r	00.r	00.r	.	1d	mo-
!	!	!	!LO:TX:t=P:problem:kreska pseudotaktowa	!	!	!	!	!	!	!	!
2E-\	.	.	2E-\	.	.	.	.	.	.	2e-/	-ri
!	!	!	!	!	!	!	!	!	!	!LO:LB:g=original	!
=93-	=93-	=93-	=93-	=93-	=93-	=93-	=93-	=93-	=93-	=93-	=93-
!	!	!	!	!	!	!	!	!	!	!LO:N:vis=0	!
1D	.	.	1D	.	.	.	.	.	1f	0.r	.
2E-\	.	.	2E-\	.	.	.	.	.	2e-y/	.	.
=94-	=94-	=94-	=94-	=94-	=94-	=94-	=94-	=94-	=94-	=94-	=94-
!	!	!	!	!	!	!	!	!	!LO:N:vis=0	!	!
1BB-	.	.	1BB-	.	.	.	.	.	0.rf	.	.
2EE-/	.	.	2EE-/	.	.	.	.	.	.	.	.
!	!	!	!	!	!	!	!	!	!LO:LB:g=original	!	!
=95-	=95-	=95-	=95-	=95-	=95-	=95-	=95-	=95-	=95-	=95-	=95-
!LO:TX:t=P:problem:kreska pseudotaktowa	!	!	!LO:TX:t=P:problem:kreska pseudotaktowa	!	!	!	!	!	!	!	!
!LO:TX:a:t=1.	!	!	!LO:TX:a:t=1.	!	!	!	!	!	!	!	!
1.rBB	.	.	1.rC	.	.	.	.	.	.	1.r	.
!LO:LB:g=original	!	!	!	!	!	!	!	!	!	!	!
=96-	=96-	=96-	=96-	=96-	=96-	=96-	=96-	=96-	=96-	=96-	=96-
*M2/1	*	*	*M2/1	*	*	*M2/1	*M2/1	*M2/1	*M2/1	*M2/1	*
*met(C)	*	*	*met(C|)	*	*	*met(C)	*met(C)	*met(C)	*met(C)	*met(C)	*
2C/	.	.	2C/	.	.	4rc	4r	4r	4r	4rd	.
.	.	.	.	.	.	2e-/	2c/	4e-y/	4g/	2e-/	In-
2AA-y/	.	.	2AA-/	.	.	.	.	4c/	2a-y\	.	.
!	!	!	!	!	!	!LO:TX:t=P:problem:kreska pseudotaktowa	!	!LO:TX:t=P:problem:kreska pseudotaktowa	!	!	!
.	.	.	.	.	.	4c/	4c/	4f/	.	4f/	-ter
2GG/	.	.	2GG/	.	.	4.B-/	4.dny/	4d/	4.b-\	4.g/	bra-
.	.	.	.	.	.	.	.	4g/	.	.	.
.	.	.	.	.	.	8B-/	8d/	.	8b-\	8g/	-chi-
!	!	!	!LO:TX:t=P:problem:kreska pseudotaktowa	!	!	!	!	!	!	!	!
!LO:TX:t=P:problem:kreska pseudotaktowa	!	!	!	!	!	!	!LO:TX:t=P:problem:kreska pseudotaktowa	!LO:TX:t=P:problem:kreska pseudotaktowa	!	!LO:TX:t=P:problem:kreska pseudotaktowa	!
2C/	.	.	2C/	.	.	4e-/	2e-/	2g/	2cc\	2g/	-a
!	!	!	!	!	!	!LO:TX:t=P:problem:kreska pseudotaktowa	!	!	!	!	!
.	.	.	.	.	.	4c/	.	.	.	.	.
*	*	*	*custos:FF	*	*	*	*	*	*	*	*
!	!	!	!LO:LB:g=original	!	!	!	!	!LO:LB:g=original	!	!	!
=97-	=97-	=97-	=97-	=97-	=97-	=97-	=97-	=97-	=97-	=97-	=97-
2FF/	.	.	2FF/	.	.	4.c/	4f/	2f/	2a-\	8a-y\	Sal-
.	.	.	.	.	.	.	.	.	.	8g/	-va-
.	.	.	.	.	.	.	4e-/	.	.	8g/	-to-
.	.	.	.	.	.	8c/	.	.	.	8f/	-ris
!	!	!	!LO:TX:t=P:problem:kreska pseudotaktowa	!	!	!	!	!	!LO:TX:t=P:problem:kreska pseudotaktowa	!	!
2BB-/	.	.	2BB-/	.	.	4d/	4d/	2f/	2b-\	4f/	me-
!	!	!	!	!	!	!LO:TX:t=P:problem:kreska pseudotaktowa	!	!	!	!	!
.	.	.	.	.	.	4B-/	4d/	.	.	4f/	-i
!LO:N:acc=#	!	!	!LO:N:acc=#	!	!	!LO:LB:g=original	!	!	!	!	!
2AAn/	.	.	2AAn/	.	.	4r	4r	4r	4r	4r	.
!	!	!	!	!	!	!	!LO:N:acc=#	!	!	!	!
.	.	.	.	.	.	4f/	4an\	4cc\	4ff\	4cc\	&
4BB-/	.	.	4BB-/	.	.	8.f/L	8.d/L	8.b-\L	8.dd\L	8.dd\	vi-
.	.	.	.	.	.	16f/Jk	16d/Jk	16b-\Jk	16dd\Jk	16cc\	-ve-
!LO:TX:t=P:problem:kreska pseudotaktowa	!	!	!	!	!	!	!	!	!	!	!
!	!	!	!LO:TX:t=P:problem:kreska pseudotaktowa	!	!	!LO:TX:t=P:problem:kreska pseudotaktowa	!LO:TX:t=P:problem:kreska pseudotaktowa	!LO:TX:t=P:problem:kreska pseudotaktowa	!LO:TX:t=P:problem:kreska pseudotaktowa	!LO:TX:t=P:problem:kreska pseudotaktowa	!
4E-\	.	.	4E-\	.	.	4gny/	4g/	4b-\	4ee-\	4b-\	-re
=98-	=98-	=98-	=98-	=98-	=98-	=98-	=98-	=98-	=98-	=98-	=98-
4C/	.	.	4C/	.	.	8.g/L	8.c/L	8.cc\L	8.ee-\L	8.ee-\	vi-
.	.	.	.	.	.	16g/Jk	16c/Jk	16cc\Jk	16ee-\Jk	16dd\	-ve-
4F\	.	.	4F\	.	.	4a-\	4c/	4cc\	4ff\	4cc\	-re
!LO:TX:t=P:problem:kreska pseudotaktowa	!	!	!LO:TX:t=P:problem:kreska pseudotaktowa	!	!	!	!	!	!	!	!
!LO:N:acc=#	!	!	!LO:N:acc=#	!	!	!	!	!	!	!	!
2En\	.	.	2En\	.	.	2r	2rd	2r	4r	4r	.
!	!	!	!	!	!	!	!	!	!LO:TX:t=P:problem:kreska pseudotaktowa	!LO:TX:t=P:problem:kreska pseudotaktowa	!
.	.	.	.	.	.	.	.	.	4g/	4g/	&
!	!	!	!	!	!	!	!LO:LB:g=original	!	!	!	!
!	!	!	!	!	!	!	!LO:TX:a:t=7.	!	!	!	!
2F\	.	.	2F\	.	.	00r	00r	00r	(2g/	2.a-\	mo-
!LO:TX:t=P:problem:kreska pseudotaktowa	!	!	!LO:TX:t=P:problem:kreska pseudotaktowa	!	!	!	!	!LO:TX:a:t=7	!	!	!
[2BB-/	.	.	[2BB-/	.	.	.	.	.	[>2f/)	.	.
.	.	.	.	.	.	.	.	.	.	4a-\	-ri
=99-	=99-	=99-	=99-	=99-	=99-	=99-	=99-	=99-	=99-	=99-	=99-
!	!	!	!	!	!	!LO:TX:a:t=7.	!	!	!	!	!
4BB-/]	.	.	4BB-/]	.	.	.	.	.	2f]	2.g/	cu-
!LO:N:acc=#	!	!	!LO:N:acc=#	!	!	!	!	!	!	!	!
4BBn/	.	.	4BBn/	.	.	.	.	.	.	.	.
!	!	!	!	!	!	!	!	!	!LO:N:acc=#	!	!
4C/	.	.	4C/	.	.	.	.	.	2en/	.	.
!LO:TX:t=P:problem:kreska pseudotaktowa	!	!	!LO:TX:t=P:problem:kreska pseudotaktowa	!	!	!	!	!	!	!LO:TX:t=P:problem:kreska pseudotaktowa	!
4CC/	.	.	4CC/	.	.	.	.	.	.	4g/	-pi-
2FF/	.	.	2FF/	.	.	.	.	.	2f/	2f/	-o
!	!	!	!	!	!	!	!	!	!	!LO:LB:g=original	!
!LO:LB:g=original	!	!	!	!	!	!	!	!	!	!LO:N:acc=#	!
4C/	.	.	4C/	.	.	.	.	.	2rf	8.en/	cu-
.	.	.	.	.	.	.	.	.	.	16e/	-pi-
!LO:TX:t=P:problem:kreska pseudotaktowa	!	!	!LO:TX:t=P:problem:kreska pseudotaktowa	!	!	!	!	!	!	!LO:TX:t=P:problem:kreska pseudotaktowa	!
4D-X/	.	.	4D-X/	.	.	.	.	.	.	4f/	-o
!	!	!	!	!	!	!	!	!	!LO:LB:g=original	!	!
=100-	=100-	=100-	=100-	=100-	=100-	=100-	=100-	=100-	=100-	=100-	=100-
!	!	!	!	!	!	!	!	!	!LO:N:acc=#	!	!
4C/	.	.	4C/	.	.	.	.	.	4en/	4g/	mo-
4FF/	.	.	4FF/	.	.	.	.	.	4f/	4f/	-ri
!	!	!LO:DY:b:t=p.	!	!	!	!	!	!	!	!LO:TX:t=P:problem:kreska pseudotaktowa	!
4C/	.	p	4C/	.	.	.	.	.	2rd	2r	.
!LO:TX:t=P:problem:kreska pseudotaktowa	!	!	!LO:TX:t=P:problem:kreska pseudotaktowa	!	!	!	!	!	!	!	!
4FF/	.	.	4FF/	.	.	.	.	.	.	.	.
4BB-y/	.	.	4BB-y/	.	.	0r	0r	0r	4d/	4d/	mo-
4E-y\	.	.	4E-y\	.	.	.	.	.	4e/	4e-y/	-ri
!	!	!	!	!	!	!	!	!	!	!LO:TX:t=P:problem:kreska pseudotaktowa	!
4BB-/	.	.	4BB-/	.	.	.	.	.	2rf	2rf	.
!LO:TX:t=P:problem:kreska pseudotaktowa	!	!	!LO:TX:t=P:problem:kreska pseudotaktowa	!	!	!	!	!	!	!	!
4E-\	.	.	4E-\	.	.	.	.	.	.	.	.
=101-	=101-	=101-	=101-	=101-	=101-	=101-	=101-	=101-	=101-	=101-	=101-
4Dny/	.	.	4Dny/	.	.	.	.	.	1rg	4f/	mo-
!	!	!	!LO:TX:a:t=e	!	!	!	!	!	!	!	!
4E-\	.	.	4E-\	.	.	.	.	.	.	4e-/	-ri
4BB-/	.	.	4BB-/	.	.	.	.	.	.	4d/	mo-
!LO:TX:t=P:problem:kreska pseudotaktowa	!	!	!LO:TX:t=P:problem:kreska pseudotaktowa	!	!	!	!	!	!	!	!
4E-\	.	.	4E-\	.	.	.	.	.	.	4e-/	-ri.
!	!	!	!	!	!	!LO:TX:t=P:problem: Verovio nie wyświetla pauzy	!LO:TX:t=P:problem: Verovio nie wyświetla pauzy	!LO:TX:t=P:problem: Verovio nie wyświetla pauzy	!	!	!
4BB-/	.	.	4BB-/	.	.	1r	1r	1r	4f/	1rg	.
4EE-/	.	.	4EE-/	.	.	.	.	.	4e-/	.	.
2rAA	.	.	2rAA	.	.	.	.	.	2rf	.	.
==	==	==	==	==	==	==	==	==	==	==	==
*-	*-	*-	*-	*-	*-	*-	*-	*-	*-	*-	*-
!!!system-decoration: s1[(s2,s3,s4,s5,s6,s7)]
!!!RDF**kern: > = above
!!!RDF**kern: < = below
!!!ENC: Berenika Jozajtis
!!!END: 2022-04-20
!!!ENC: Natalia Wrzos
!!!END: 2022-11-02
!!!YEC: Copyright 2022 Narodowy Instytut Fryderyka Chopina (https://polishscores.org)
!!!YEM: License CC-BY-4.0 (https://creativecommons.org/licenses/by/4.0)
